!!!!SEGMENT: pl-wtm--r-1726--003_stefani-jozef--piekna-dziewczyna-z-gandawy-kontredans.krn
!!!cenid: 18xx:1889
!!!COM: Stefani, Józef
!!!COM-rismid: pe30024097
!!!CDT: 1800/04/16-1876/03/19
!!!CNT: Polish
!!!GTL: Piękna dziewczyna z Gandawy
!!!OTL: Kontredans [3]
!!!PDT:
!!!AGN: Secular
!!!SMS-siglum: PL-Wtm
!!!SMS-shelfmark: R 1726
!!!SMS-shelfwork: 003 G
!!!SMS-variant:
!!!SMS-altvar:
!!!NIFC-rismid: 1001129101
!!!URL-scan: http://repozytorium.nifc.pl/skany/pl-wtm-nut--r1726
!!!ONB-nifc: UWAGA: No. 3. Partie perkusji zapisane osobno na końcu rękopisu
**kern	**dynam	**kern	**dynam	**kern	**dynam	**kern	**dynam	**kern	**dynam	**kern	**dynam	**kern	**dynam	**kern	**dynam	**kern	**dynam	**kern	**dynam	**kern	**dynam	**kern	**dynam
*part12	*part12	*part11	*part11	*part10	*part10	*part9	*part9	*part8	*part8	*part7	*part7	*part6	*part6	*part5	*part5	*part4	*part4	*part3	*part3	*part2	*part2	*part1	*part1
*staff12	*	*staff11	*	*staff10	*	*staff9	*	*staff8	*	*staff7	*	*staff6	*	*staff5	*	*staff4	*	*staff3	*	*staff2	*	*staff1	*
*Ibdrum	*	*Itrngl	*	*Itimpa	*	*Iempty	*	*Iviola	*	*Ivioln	*	*Ivioln	*	*Itromt	*	*Itromp	*	*Icor	*	*Iclars	*	*Ipicco	*
*I"G.C.	*	*I"Triangolo	*	*I"Timpani	*	*I"Baſsi	*	*I"Viole	*	*I"Violino 2o	*	*I"Violino I	*	*I"Trombone	*	*I"in C Trombe Chromatique	*	*I"in d Corni	*	*I"in C Clarinetti	*	*I"Picolo Flauto	*
*I'grancassa	*	*I'triangolo	*	*I'timp	*	*I'b	*	*I'vla	*	*I'vl II	*	*I'vl I	*	*I'trb	*	*I'tr crom	*	*I'cor	*	*I'cl	*	*I'fl, fl.picc	*
*clefF4	*	*clefG2	*	*clefF4	*	*clefF4	*	*clefC3	*	*clefG2	*	*clefG2	*	*clefF4	*	*clefG2	*	*clefG2	*	*clefG2	*	*clefG2	*
*	*	*	*	*	*	*	*	*	*	*	*	*	*	*	*	*	*	*ITrd-1c-2	*	*	*	*	*
*k[]	*	*k[]	*	*k[]	*	*k[f#c#]	*	*k[f#c#]	*	*k[f#c#]	*	*k[f#c#]	*	*k[f#c#]	*	*k[f#c#]	*	*k[f#c#]	*	*k[f#c#]	*	*k[f#c#]	*
*D:	*	*D:	*	*D:	*	*D:	*	*D:	*	*D:	*	*D:	*	*D:	*	*D:	*	*D:	*	*D:	*	*D:	*
*M2/4	*	*M2/4	*	*M2/4	*	*M2/4	*	*M2/4	*	*M2/4	*	*M2/4	*	*M2/4	*	*M2/4	*	*M2/4	*	*M2/4	*	*M2/4	*
!	!	!	!	!	!	!	!	!	!	!	!	!	!	!	!	!	!	!	!	!	!	!LO:TX:a:t=No 3.	!
!LO:TX:t=P:problem:perkusja zapisana oddzielnie, na końcu rękopisu, dlatego ma oddzielne znaki łamania systemów	!	!LO:TX:t=P:problem:perkusja zapisana oddzielnie, na końcu rękopisu, dlatego ma oddzielne znaki łamania systemów	!	!LO:TX:t=P:problem:perkusja zapisana oddzielnie, na końcu rękopisu, dlatego ma oddzielne znaki łamania systemów	!	!	!	!	!	!	!	!	!	!	!	!	!	!	!	!LO:TX:b:t=due	!	!LO:TX:a:t=Picolo\net\nfl.	!LO:DY:rj
8r	.	8r	.	8r	.	8r	.	8ryy	.	8r	.	8a/	f	8r	.	8r	.	8r	.	8a/	.	8a/	f
=1!|:	=1!|:	=1!|:	=1!|:	=1!|:	=1!|:	=1!|:	=1!|:	=1!|:	=1!|:	=1!|:	=1!|:	=1!|:	=1!|:	=1!|:	=1!|:	=1!|:	=1!|:	=1!|:	=1!|:	=1!|:	=1!|:	=1!|:	=1!|:
.	.	.	.	.	.	.	.	.	.	.	.	(16qqee/LL	.	.	.	.	.	.	.	(16qqf#/LL	.	(16qqee/LL	f
.	.	.	.	.	.	.	.	.	.	.	.	16qqdd/	.	.	.	.	.	.	.	16qqe/	.	16qqdd/	.
!	!	!	!	!	!	!	!	!	!	!	!	!	!	!	!	!	!	!	!	!	!	!LO:TX:t=P:problem:ołówkiem zanotowane litery: c a	!
.	.	.	.	.	.	.	.	.	.	.	.	16qqcc#/JJ)	.	.	.	.	.	.	.	16qqd/JJ	.	16qqcc#/JJ)	.
*	*	*	*	*	*	*	*	*	*	*	*	*	*	*	*	*^	*	*	*	*	*	*	*
!	!LO:DY:a:rj	!	!	!	!LO:DY:rj	!	!	!	!LO:DY:rj	!	!	!	!	!	!LO:DY:a:rj	!	!	!	!	!LO:DY:rj	!	!	!	!
8Ra/	f	8Ree\	.	8D/	f	8D\	.	8d\ 8A\ 8D\	f	8f#/ 8A/	.	(8dd\L	.	8D\	f	8a/	8f#\	.	8dd/ 8f#/	f	8d/L)	.	(8dd\L	.
8r	.	8r	.	8r	.	8r	.	8r	.	8r	.	16ff#\Jk)	.	8r	.	8r	8r	.	8r	.	16f#/Jk	.	16ff#\Jk)	.
.	.	.	.	.	.	.	.	.	.	.	.	16r	.	.	.	.	.	.	.	.	16r	.	16r	.
8Ra/	.	8Ree\	.	8D/	.	8D\	.	8d\ 8A\ 8D\	.	8f#/ 8A/	.	(8aa\L	.	8D\	.	8a/	8f#\	.	8dd/ 8f#/	.	(8a/L	.	(8aa\L	.
8r	.	8r	.	8r	.	8r	.	8r	.	8r	.	16ddd\Jk)	.	8r	.	8r	8r	.	8r	.	16dd/Jk)	.	16ddd\Jk)	.
.	.	.	.	.	.	.	.	.	.	.	.	16r	.	.	.	.	.	.	.	.	16r	.	16r	.
=2	=2	=2	=2	=2	=2	=2	=2	=2	=2	=2	=2	=2	=2	=2	=2	=2	=2	=2	=2	=2	=2	=2	=2	=2
*	*	*	*	*	*	*	*	*	*	*	*	*	*	*	*	*	*	*	*	*	*	*	*^	*
*tremolo	*	*tremolo	*	*tremolo	*	*tremolo	*	*tremolo	*	*tremolo	*	*	*	*tremolo	*	*	*	*	*tremolo	*	*	*	*	*	*
!	!	!	!	!	!	!	!LO:DY:rj	!	!	!	!LO:DY:rj	!	!	!	!LO:DY:rj	!	!	!LO:DY:rj	!	!	!	!	!	!	!
8Ra/L	.	8Ree^<\L	.	8D/L	sf	8GG/L	fz	8e\L 8G\	.	8g/L 8B/	fz	4.bb\	sf	8G\L	sf	8g/L	8g\L	sf	8ee/L 8b/	sf	4.b/	.	4.bb\	4.ryy	sf
8Ra/	.	8Ree\	.	8D/	.	8GG/	.	8e\ 8G\	.	8g/ 8B/	.	.	.	8G\	.	8g/	8g\	.	8ee/ 8b/	.	.	.	.	.	.
8Ra/J	.	8Ree\J	.	8D/J	.	8GG/J	.	8e\J 8G\	.	8g/J 8B/	.	.	.	8G\J	.	8g/J	8g\J	.	8ee/J 8b/	.	.	.	.	.	.
!	!	!	!	!	!	!	!	!	!	!	!	!	!LO:DY:rj	!	!	!	!	!	!	!	!	!	!LO:TX:a:t=Picolo	!	!
8r	.	8r	.	8r	.	8r	.	8r	.	8r	.	(16ee\LL	p	8r	.	8r	8r	.	8r	.	8r	.	16ee/LL	8r	.
.	.	.	.	.	.	.	.	.	.	.	.	16bb\JJ)	.	.	.	.	.	.	.	.	.	.	16bb/JJ	.	.
*	*	*	*	*	*	*	*	*	*	*	*	*	*	*	*	*v	*v	*	*	*	*	*	*	*	*
=3	=3	=3	=3	=3	=3	=3	=3	=3	=3	=3	=3	=3	=3	=3	=3	=3	=3	=3	=3	=3	=3	=3	=3	=3
!LO:TX:a:t=2.	!	!LO:TX:a:t=2.	!	!LO:TX:a:t=2.	!	!	!LO:DY:rj	!	!	!	!	!	!	!	!	!	!	!	!LO:DY:rj	!	!	!	!	!
2r	.	2r	.	2r	.	8AA/	p	8r	.	8r	.	8bb-X'\L	.	2r	.	2r	.	2ee/ 2a/	p	2r	.	8bb-X'>/L	2r	.
!	!	!	!	!	!	!	!	!	!	!	!LO:DY:rj	!	!	!	!	!	!	!	!	!	!	!	!	!
.	.	.	.	.	.	8r	.	8c#\	.	8g/ 8A/	p	16aa'\L	.	.	.	.	.	.	.	.	.	16aa'>/L	.	.
.	.	.	.	.	.	.	.	.	.	.	.	16gg#X'\JJ	.	.	.	.	.	.	.	.	.	16gg#X'>/JJ	.	.
.	.	.	.	.	.	8AA/	.	8r	.	8r	.	8ggn\	.	.	.	.	.	.	.	.	.	8ggn'>/	.	.
.	.	.	.	.	.	8r	.	8c#\	.	8g/ 8A/	.	(16a\LL	.	.	.	.	.	.	.	.	.	(>16a/LL	.	.
.	.	.	.	.	.	.	.	.	.	.	.	16gg\JJ)	.	.	.	.	.	.	.	.	.	16gg/JJ	.	.
=4	=4	=4	=4	=4	=4	=4	=4	=4	=4	=4	=4	=4	=4	=4	=4	=4	=4	=4	=4	=4	=4	=4	=4	=4
2r	.	2r	.	2r	.	8D\	.	8r	.	8r	.	8ff#'\L	.	2r	.	2r	.	2dd/ 2d/	.	2r	.	8ff#'>/L)	4.rgyy	.
.	.	.	.	.	.	8r	.	8d\	.	8f#/ 8A/	.	16ffn'\L	.	.	.	.	.	.	.	.	.	16ffn'>/L	.	.
.	.	.	.	.	.	.	.	.	.	.	.	16ee'\JJ	.	.	.	.	.	.	.	.	.	16ee'>/JJ	.	.
*	*	*	*	*	*	*	*	*rep	*	*rep	*	*	*	*	*	*	*	*	*	*	*	*	*	*
.	.	.	.	.	.	8D\	.	8r	.	8r	.	8dd'\L	.	.	.	.	.	.	.	.	.	8dd'>/L	.	.
.	.	.	.	.	.	8r	.	8d\	.	8f#/ 8A/	.	8a'\J	.	.	.	.	.	.	.	.	.	8a'>/J	8a\	.
*	*	*	*	*	*	*	*	*Xrep	*	*Xrep	*	*	*	*	*	*	*	*	*	*	*	*	*	*
*	*	*	*	*	*	*	*	*	*	*	*	*	*	*	*	*	*	*	*	*	*	*v	*v	*
!!LO:LB:g=original
=5	=5	=5	=5	=5	=5	=5	=5	=5	=5	=5	=5	=5	=5	=5	=5	=5	=5	=5	=5	=5	=5	=5	=5
!	!	!	!	!	!	!	!	!	!	!	!	!	!	!	!	!	!	!	!	!	!	!LO:TX:a:t=Picolo\net\nfla&colon;	!
.	.	.	.	.	.	.	.	.	.	.	.	(16qqee/LL	f	.	.	.	.	.	.	(16qqe/LL	.	(16qqee/LL	.
.	.	.	.	.	.	.	.	.	.	.	.	16qqdd/	.	.	.	.	.	.	.	16qqd/	.	16qqdd/	.
.	.	.	.	.	.	.	.	.	.	.	.	16qqcc#/JJ)	.	.	.	.	.	.	.	16qqc#/JJ)	.	16qqcc#/JJ)	.
*	*	*	*	*	*	*	*	*	*	*	*	*	*	*	*	*^	*	*	*	*	*	*	*
!	!	!	!	!	!	!	!LO:DY:rj	!	!LO:DY:rj	!	!	!	!	!	!	!	!	!LO:DY:rj	!	!LO:DY:rj	!	!	!	!
8Ra/	.	8Ree\	.	8D/	.	8D\	f	8d\ 8A\ 8D\	f	8f#/ 8A/	.	(8dd\L	.	8D\	.	8a/	8f#\	f	8dd/ 8f#/	f	(8d/L	.	(8dd\L	.
8r	.	8r	.	8r	.	8r	.	8r	.	8r	.	16ff#\Jk)	.	8r	.	8r	8r	.	8r	.	16f#/Jk)	.	16ff#\Jk)	.
.	.	.	.	.	.	.	.	.	.	.	.	16r	.	.	.	.	.	.	.	.	16r	.	16r	.
.	.	.	.	.	.	.	.	.	.	.	.	.	.	.	.	.	.	.	.	.	(16qqb/LL	.	(16qqbb/LL	.
.	.	.	.	.	.	.	.	.	.	.	.	.	.	.	.	.	.	.	.	.	16qqa/	.	16qqaa/	.
.	.	.	.	.	.	.	.	.	.	.	.	.	.	.	.	.	.	.	.	.	16qqg#X/JJ)	.	16qqgg#X/JJ)	.
8Ra/	.	8Ree\	.	8D/	.	8D\	.	8d\ 8A\ 8D\	.	8f#/ 8A/	.	(8aa\L	.	8D\	.	8a/	8f#\	.	8dd/ 8f#/	.	(8a\L	.	(8aa\L	.
8r	.	8r	.	8r	.	8r	.	8r	.	8r	.	16ddd\Jk)	.	8r	.	8r	8r	.	8r	.	16dd\Jk)	.	16ddd\Jk)	.
.	.	.	.	.	.	.	.	.	.	.	.	16r	.	.	.	.	.	.	.	.	16r	.	16r	.
=6	=6	=6	=6	=6	=6	=6	=6	=6	=6	=6	=6	=6	=6	=6	=6	=6	=6	=6	=6	=6	=6	=6	=6	=6
*	*	*	*	*	*	*	*	*	*	*	*	*	*	*	*	*	*	*	*^	*	*	*	*^	*
!	!	!	!	!	!	!	!LO:DY:rj	!	!LO:DY:rj	!	!LO:DY:rj	!	!LO:DY:rj	!	!	!	!	!	!	!	!	!	!	!	!	!
8Ra/L	.	8Ree\L	.	8D/L	.	8GG/L	fz	8e\L 8G\	fz	8g/L 8B/	fz	4.bb\	fz	8G\L	.	8g/L	8g\L	.	8ee/L	8b\L	sf	4.b\	.	4.bb\	4.ryy	sf
8Ra/	.	8Ree\	.	8D/	.	8GG/	.	8e\ 8G\	.	8g/ 8B/	.	.	.	8G\	.	8g/	8g\	.	8ee/	8b\	.	.	.	.	.	.
8Ra/J	.	8Ree\J	.	8D/J	.	8GG/J	.	8e\J 8G\	.	8g/J 8B/	.	.	.	8G\J	.	8g/J	8g\J	.	8ee/J	8b\J	.	.	.	.	.	.
*	*	*	*	*	*	*	*	*	*	*	*	*	*	*Xtremolo	*	*	*	*	*	*	*	*	*	*	*	*
!	!	!	!	!	!	!	!	!	!	!	!	!	!LO:DY:rj	!	!	!	!	!	!	!	!	!	!	!LO:TX:a:t=Picolo	!	!
8r	.	8r	.	8r	.	8r	.	8r	.	8r	.	(16ee\LL	p	8r	.	8r	8r	.	8r	8r	.	8r	.	(<16ee/LL	8r	.
.	.	.	.	.	.	.	.	.	.	.	.	16bb\JJ)	.	.	.	.	.	.	.	.	.	.	.	16bb/JJ)	.	.
*	*	*	*	*	*	*	*	*	*	*	*	*	*	*	*	*v	*v	*	*	*	*	*	*	*	*	*
*	*	*	*	*	*	*	*	*	*	*	*	*	*	*	*	*	*	*v	*v	*	*	*	*	*	*
=7	=7	=7	=7	=7	=7	=7	=7	=7	=7	=7	=7	=7	=7	=7	=7	=7	=7	=7	=7	=7	=7	=7	=7	=7
!	!	!	!	!	!	!	!LO:DY:rj	!	!	!	!	!	!	!	!	!	!	!	!LO:DY:rj	!	!	!	!	!
2r	.	2r	.	2r	.	8AA/	p	8r	.	8r	p	8bb-X'\L	.	2r	.	2r	.	2ee/ 2a/	p	2r	.	8bb-X/L	2r	.
.	.	.	.	.	.	8r	.	8e\ 8c#\	.	8g/ 8A/	.	16aa'\L	.	.	.	.	.	.	.	.	.	16aa/L	.	.
.	.	.	.	.	.	.	.	.	.	.	.	16gg#X'\JJ	.	.	.	.	.	.	.	.	.	16gg#X/JJ	.	.
.	.	.	.	.	.	8AA/	.	8r	.	8r	.	8ggn'\L	.	.	.	.	.	.	.	.	.	8ggn/L	.	.
!	!	!	!	!	!	!	!	!	!	!	!	!	!	!	!	!	!	!	!	!	!	!LO:TX:t=P:problem:wykreślona kreska taktowa z zamknięciem repetycji	!	!
.	.	.	.	.	.	8r	.	8e\ 8c#\	.	8g/ 8A/	.	16ee'\L	.	.	.	.	.	.	.	.	.	16ee/L	.	.
.	.	.	.	.	.	.	.	.	.	.	.	16ff#'\JJ	.	.	.	.	.	.	.	.	.	16ff#/JJ	.	.
!LO:LB:g=original	!	!LO:LB:g=original	!	!LO:LB:g=original	!	!	!	!	!	!	!	!	!	!	!	!	!	!	!	!	!	!	!	!
=8	=8	=8	=8	=8	=8	=8	=8	=8	=8	=8	=8	=8	=8	=8	=8	=8	=8	=8	=8	=8	=8	=8	=8	=8
!	!	!	!	!	!	!	!	!	!	!	!	!	!	!	!	!	!	!	!	!	!	!LO:TX:t=P:problem:ołówkiem wpisane b i d.	!	!
4r	.	4r	.	4r	.	8D/L	.	8d\L	.	8f#/L 8A/	.	4.dd\	.	4r	.	4r	.	8dd/L 8d/	.	4r	.	4.dd/	4r	.
.	.	.	.	.	.	8D/	.	8d\	.	8f#/ 8A/	.	.	.	.	.	.	.	8dd/ 8d/	.	.	.	.	.	.
8r	.	8r	.	8r	.	8D/J	.	8d\J	.	8f#/J 8A/	.	.	.	8r	.	8r	.	8dd/J 8d/	.	8r	.	.	8r	.
!	!	!	!	!	!	!	!	!	!	!	!	!	!LO:DY:rj	!	!	!LO:TX:a:t=Corni	!	!LO:TX:a:t=Trombe	!	!	!	!LO:TX:a:t=due	!	!
8r	.	8r	.	8r	.	8r	.	8r	.	(16c#/LL	.	(16cc#\LL	mf	8r	.	8r	.	16d/LL	.	8r	.	(16cc#\LL	8ryy	.
.	.	.	.	.	.	.	.	.	.	16d/JJ)	.	16dd\JJ)	.	.	.	.	.	16e/JJ	.	.	.	16dd\JJ)	.	.
*	*	*	*	*	*	*	*	*	*	*	*	*	*	*	*	*	*	*	*	*	*	*v	*v	*
==9	==9	==9	==9	==9	==9	==9	==9	==9	==9	==9	==9	==9	==9	==9	==9	==9	==9	==9	==9	==9	==9	==9	==9
*	*	*	*	*	*	*	*	*	*	*	*	*	*	*	*	*	*	*	*	*^	*	*	*
*	*	*	*	*	*	*	*	*	*	*	*	*	*	*	*	*	*	*Xtremolo	*	*	*2\right	*	*	*
!LO:TX:a:t=2.	!	!	!LO:DY:rj	!	!	!	!LO:DY:rj	!	!LO:DY:rj	!	!	!	!	!	!	!	!LO:DY:rj	!	!	!	!	!	!	!
2r	.	8Ree\	p	2r	.	8C#/L	mf	8G/L	mf	(8.e/L	.	((8.ee\L	.	2r	.	2dd/ 2g/	mf	(8.f#/L	.	2a/	2g\	.	(8.ee\L	.
.	.	8r	.	.	.	8AA/	.	8A/	.	.	.	.	.	.	.	.	.	.	.	.	.	.	.	.
.	.	.	.	.	.	.	.	.	.	16d#X/K)	.	16dd#X\K)	.	.	.	.	.	16e#X/K)	.	.	.	.	16dd#X\K)	.
.	.	4r	.	.	.	8C#/	.	8G/	.	8e'/J	.	8ee'\J)	.	.	.	.	.	8f#'/J	.	.	.	.	8ee'\J	.
!	!	!	!	!	!	!	!	!	!	!	!	!	!LO:DY:rj	!	!	!	!	!	!	!	!	!	!	!
.	.	.	.	.	.	8AA/J	.	8A/J	.	(16f#'/LL	.	(16ff#'\LL	f	.	.	.	.	(16g'/LL	.	.	.	.	(16ff#'\LL	.
.	.	.	.	.	.	.	.	.	.	16g'/JJ)	.	16gg'\JJ)	.	.	.	.	.	16a'/JJ)	.	.	.	.	16gg'\JJ	.
=10	=10	=10	=10	=10	=10	=10	=10	=10	=10	=10	=10	=10	=10	=10	=10	=10	=10	=10	=10	=10	=10	=10	=10	=10
2r	.	8Ree\	.	2r	.	8D/L	.	8F#/L	.	(8.a/L	.	(8.aa\L	.	2r	.	2cc#/ 2e/	.	(8.b/L	.	4.a/	2f#\	.	(8.aa\L)	.
.	.	8r	.	.	.	8AA/	.	8A/	.	.	.	.	.	.	.	.	.	.	.	.	.	.	.	.
.	.	.	.	.	.	.	.	.	.	16b/K)	.	16bb\K)	.	.	.	.	.	16cc#/K)	.	.	.	.	16bb\K)	.
.	.	4r	.	.	.	8D/	.	8F#/	.	8a'/J	.	8aa'\J	.	.	.	.	.	8b'/J	.	.	.	.	8aa'\J	.
.	.	.	.	.	.	8AA/J	.	8A/J	.	(16cc#\LL	.	(16ccc#\LL	.	.	.	.	.	16d/LL	.	16cc#/LL	.	.	16ccc#\LL	.
.	.	.	.	.	.	.	.	.	.	16dd\JJ)	.	16ddd\JJ	.	.	.	.	.	16e/JJ	.	16dd/JJ	.	.	16ddd\JJ	.
*	*	*	*	*	*	*	*	*	*	*	*	*	*	*	*	*	*	*	*	*v	*v	*	*	*
!!LO:PB:g=original
=11	=11	=11	=11	=11	=11	=11	=11	=11	=11	=11	=11	=11	=11	=11	=11	=11	=11	=11	=11	=11	=11	=11	=11
*	*	*	*	*	*	*	*	*	*	*	*	*8va	*	*	*	*	*	*	*	*	*	*8va	*
*	*	*	*	*	*	*	*	*	*	*	*	*	*	*	*	*^	*	*	*	*^	*	*	*
!	!	!	!	!	!LO:DY:rj	!	!LO:DY:rj	!	!LO:DY:rj	!LO:TX:t=P:problem:8va col Vo. 1o	!	!LO:TX:t=P:problem:brak zakończenia łuku	!LO:DY:rj	!	!	!	!	!LO:DY:rj	!	!LO:DY:rj	!	!	!LO:DY:rj	!LO:TX:a:t=due\nCol Vo. Io.	!LO:DY:rj
4Ra/	.	8Ree\	.	8AA/	f	8C#/L	f	8E/L	f	8ee'\Lyy	.	8eee'\L)	f	8C#/L	.	8e/L	8A\	f	8ee/ 8a/	f	8ee/L	8a\	f	8eee'\Lyy	f
.	.	8r	.	8r	.	8AA/	.	8A/	.	8dd#X'\yy	.	8ddd#X'\	.	8AA/J	.	8d#X/	8r	.	8r	.	8dd#X/	8r	.	8ddd#X'\yy	.
*	*	*	*	*	*	*	*	*	*	*	*	*	*	*rep	*	*	*	*	*	*	*	*	*	*	*
4Ra/	.	8Ree\	.	8AA/	.	8C#/	.	8E/	.	8ee'\yy	.	8eee'\	.	8C#/L	.	8e/	8A\	.	8ee/ 8a/	.	8ee/	8a\	.	8eee'\yy	.
.	.	8r	.	8r	.	8AA/J	.	8A/J	.	8ffn'\Jyy	.	8fffn'\J	.	8AA/J	.	8e#/J	8r	.	8r	.	8ee#X/J	8r	.	8fffn'\Jyy	.
*	*	*	*	*	*	*Xtremolo	*	*Xtremolo	*	*	*	*	*	*Xrep	*	*	*	*	*	*	*	*	*	*	*
=12	=12	=12	=12	=12	=12	=12	=12	=12	=12	=12	=12	=12	=12	=12	=12	=12	=12	=12	=12	=12	=12	=12	=12	=12	=12
*	*	*	*	*	*	*	*	*	*	*	*	*	*	*	*	*	*	*	*^	*	*	*	*	*	*
4.Ra/	.	8Ree\L	.	8D/L	.	8D/L	.	8A/	.	8ff#\Lyy	.	8fff#\L	.	8D/L	.	8f#/L	4.A\	.	8dd/L	8f#\L	.	8ff#/L	8a\L	.	8fff#\Lyy	.
.	.	8Ree\	.	8D/	.	8AA/	.	8f#/L 8A/	.	16dd\Lyy	.	16ddd\L	.	8AA/	.	16d/L	.	.	8ff#/	8dd\	.	16dd/L	8f#\	.	16ddd\Lyy	.
.	.	.	.	.	.	.	.	.	.	16b\JJyy	.	16bb\JJ	.	.	.	16B/JJ	.	.	.	.	.	16b/JJ	.	.	16bb\JJyy	.
.	.	8Ree\J	.	8D/J	.	8D/J	.	8f#/J 8A/	.	8a/yy	.	8aa/	.	8D/J	.	8A/	.	.	8ff#/J	8dd\J	.	8a/	8f#\J	.	8aa/yy	.
*	*	*	*	*	*	*	*	*	*	*	*	*	*	*	*	*v	*v	*	*	*	*	*v	*v	*	*	*
*	*	*	*	*	*	*	*	*	*	*	*	*	*	*	*	*	*	*v	*v	*	*	*	*	*
*	*	*	*	*	*	*tremolo	*	*tremolo	*	*	*	*X8va	*	*	*	*	*	*	*	*	*	*X8va	*
*	*	*	*	*	*	*	*	*	*	*	*	*	*	*	*	*^	*	*^	*	*^	*	*	*
!	!	!	!	!	!	!	!	!	!	!	!LO:DY:rj	!LO:TX:a:t=loco	!LO:DY:rj	!	!	!	!	!	!	!	!	!	!	!	!LO:TX:a:i:t=loco	!LO:DY:rj
8r	.	8r	.	8r	.	8r	.	8r	mf	16c#/LLyy	mf	16cc#\LL	mf	8r	.	16c#/LL	8r	.	8r	8ryy	.	8r	8r	.	16cc#\LLyy	mf
.	.	.	.	.	.	.	.	.	.	16d/JJyy	.	16dd\JJ	.	.	.	16d/JJ	.	.	.	.	.	.	.	.	16dd\JJyy	.
*	*	*	*	*	*	*	*	*	*	*	*	*	*	*	*	*v	*v	*	*	*	*	*	*	*	*	*
*	*	*	*	*	*	*	*	*	*	*	*	*	*	*	*	*	*	*v	*v	*	*	*	*	*	*
=13	=13	=13	=13	=13	=13	=13	=13	=13	=13	=13	=13	=13	=13	=13	=13	=13	=13	=13	=13	=13	=13	=13	=13	=13
!LO:TX:a:t=2.	!	!	!	!LO:TX:a:t=2.	!	!	!	!	!	!	!	!	!	!	!	!	!	!	!LO:DY:rj	!	!	!LO:DY:rj	!	!
2r	.	4Ree\	.	2r	.	8C#/L	.	8G/L	.	(8.e/Lyy	.	(8.ee\L	.	2r	.	(8.e/L	.	2ee/ 2a/	mf	2a/	2g\	mf	(8.ee\Lyy	.
.	.	.	.	.	.	8AA/	.	8A/	.	.	.	.	.	.	.	.	.	.	.	.	.	.	.	.
.	.	.	.	.	.	.	.	.	.	16d#X/K)yy	.	16dd#X\K)	.	.	.	16d#X/K)	.	.	.	.	.	.	16dd#X\K)yy	.
.	.	4r	.	.	.	8C#/	.	8G/	.	8e'/Jyy	.	8ee'\J	.	.	.	8e'/J	.	.	.	.	.	.	8ee'\Jyy	.
.	.	.	.	.	.	8AA/J	.	8A/J	.	(16f#'/LLyy	.	(16ff#'\LL	.	.	.	(16f#/LL	.	.	.	.	.	.	(16ff#'\LLyy	.
.	.	.	.	.	.	.	.	.	.	16g'/JJ)yy	.	16gg'\JJ)	.	.	.	16g/JJ)	.	.	.	.	.	.	16gg'\JJ)yy	.
*	*	*	*	*	*	*Xtremolo	*	*	*	*	*	*	*	*	*	*	*	*	*	*	*	*	*	*
=14	=14	=14	=14	=14	=14	=14	=14	=14	=14	=14	=14	=14	=14	=14	=14	=14	=14	=14	=14	=14	=14	=14	=14	=14
2r	.	4Ree\	.	2r	.	8D/L	.	8F#/L	.	(8.a/Lyy	.	(8.aa\L	.	2r	.	(8.a/L	.	2dd/ 2f#/	.	4.a/	2f#\	.	(8.aa\Lyy	.
.	.	.	.	.	.	8AA/	.	8A/	.	.	.	.	.	.	.	.	.	.	.	.	.	.	.	.
.	.	.	.	.	.	.	.	.	.	16b/Kyy	.	16bb\K	.	.	.	16b/K)	.	.	.	.	.	.	16bb\Kyy	.
.	.	4r	.	.	.	8D/	.	8F#/	.	8a/J)yy	.	8aa\J)	.	.	.	8a'/J	.	.	.	.	.	.	8aa\J)yy	.
!	!	!	!	!	!	!	!	!	!	!	!LO:DY:rj	!	!LO:DY:rj	!	!	!	!	!	!	!	!	!	!	!LO:DY:rj
.	.	.	.	.	.	8D/J	.	8A/J	.	(16dd\LLyy	f	(16ddd\LL	f	.	.	(16d/LL	.	.	.	16dd/LL	.	.	(16ddd\LLyy	f
.	.	.	.	.	.	.	.	.	.	16cc#\JJ)yy	.	16ccc#\JJ)	.	.	.	16c#/JJ)	.	.	.	16cc#/JJ	.	.	16ccc#\JJ)yy	.
=15	=15	=15	=15	=15	=15	=15	=15	=15	=15	=15	=15	=15	=15	=15	=15	=15	=15	=15	=15	=15	=15	=15	=15	=15
*	*	*	*	*	*	*	*	*	*	*	*	*	*	*	*	*	*	*^	*	*	*	*	*	*
!	!	!	!	!	!	!	!LO:DY:rj	!	!LO:DY:rj	!	!	!	!	!	!	!	!LO:DY:rj	!	!	!	!	!	!LO:DY:rj	!	!
4Ra/	.	4Ree\	.	8D\	.	8E\	f	8G#X/	f	8b'\Lyy	.	8bb'\L	.	8E\	.	8B'/L	f	8b/	8b\	.	8b/L	8g#X\	f	8bb'\Lyy	.
.	.	.	.	8r	.	8r	.	8r	.	8a#X'\yy	.	8aa#X'\	.	8r	.	8A#X'/	.	8r	8ryy	.	8a#X/	8r	.	8aa#X'\yy	.
4Ra/	.	4Ree\	.	8D\	.	8E\	.	8B/ 8G#/	.	8b'\yy	.	8bb'\	.	8E\	.	8B'/	.	8ee/	8ee\	.	8b/	8g#\	.	8bb'\yy	.
.	.	.	.	8r	.	8r	.	8r	.	8ee'\Jyy	.	8eee'\J	.	8r	.	8e'/J	.	8r	8ryy	.	8ee/J	8r	.	8eee'\Jyy	.
=16	=16	=16	=16	=16	=16	=16	=16	=16	=16	=16	=16	=16	=16	=16	=16	=16	=16	=16	=16	=16	=16	=16	=16	=16	=16
4Ra/	.	4Ree\	.	4AA/	.	8A\L	.	8A/L	.	4.a/yy	.	4.aa\	.	4.A\	.	4.A/	.	4.a/	4.a\	.	4.a/	4.a\	.	4.aa\yy	.
.	.	.	.	.	.	8E\	.	8A/	.	.	.	.	.	.	.	.	.	.	.	.	.	.	.	.	.
4r	.	4r	.	4r	.	8AA\J	.	8A/J	.	.	.	.	.	.	.	.	.	.	.	.	.	.	.	.	.
.	.	.	.	.	.	8r	.	8r	.	8r	.	8a/	.	8r	.	8r	.	8r	8ryy	.	8a/	8a\	.	8a/yy	.
*	*	*	*	*	*	*	*	*	*	*	*	*	*	*	*	*	*	*v	*v	*	*	*	*	*	*
*	*	*	*	*	*	*	*	*	*	*	*	*	*	*	*	*	*	*	*	*v	*v	*	*	*
!!LO:LB:g=original
=17	=17	=17	=17	=17	=17	=17	=17	=17	=17	=17	=17	=17	=17	=17	=17	=17	=17	=17	=17	=17	=17	=17	=17
!	!	!	!	!	!	!	!	!	!	!	!	!	!	!	!	!	!	!LO:TX:t=P:problem:skopiowano odcinek a.- b.	!	!LO:TX:t=P:problem:skopiowano odcinek a.- b.	!	!LO:TX:t=P:problem:skopiowano odcinek a.- b.	!
.	.	.	.	.	.	.	.	.	.	.	.	(16qqee/LL	.	.	.	.	.	.	.	(16qqf#/LLyy	.	(16qqee/LLyy	.
.	.	.	.	.	.	.	.	.	.	.	.	16qqdd/	.	.	.	.	.	.	.	16qqe/yy	.	16qqdd/yy	.
.	.	.	.	.	.	.	.	.	.	.	.	16qqcc#/JJ)	f	.	.	.	.	.	.	16qqd/JJyy	.	16qqcc#/JJyy)	f
*	*	*	*	*	*	*	*	*	*	*	*	*	*	*	*	*^	*	*	*	*	*	*	*
!	!	!	!	!	!	!LO:TX:t=P:problem:skopiowano odcinek a.- b.	!	!LO:TX:t=P:problem:skopiowano odcinek a.- b.	!LO:DY:rj	!LO:TX:t=P:problem:skopiowano odcinek a.- b.	!	!	!	!LO:TX:t=P:problem:skopiowano odcinek a.- b.	!LO:DY:a:rj	!LO:TX:t=P:problem:skopiowano odcinek a.- b.	!	!	!	!LO:DY:rj	!	!	!	!
8Ra/	.	8Ree\	.	8D/	.	8D\yy	.	8d\yy 8A\yy 8D\yy	f	8f#/yy 8A/yy	.	(8dd\L	.	8D\yy	f	8a/yy	8f#\yy	.	8dd/yy 8f#/yy	f	8d/L)yy	.	(8dd\Lyy	.
8r	.	8r	.	8r	.	8ryy	.	8ryy	.	8ryy	.	16ff#\Jk)	.	8ryy	.	8ryy	8ryy	.	8ryy	.	16f#/Jkyy	.	16ff#\Jk)yy	.
.	.	.	.	.	.	.	.	.	.	.	.	16r	.	.	.	.	.	.	.	.	16ryy	.	16ryy	.
8Ra/	.	8Ree\	.	8D/	.	8D\yy	.	8d\yy 8A\yy 8D\yy	.	8f#/yy 8A/yy	.	(8aa\L	.	8D\yy	.	8a/yy	8f#\yy	.	8dd/yy 8f#/yy	.	(8a/Lyy	.	(8aa\Lyy	.
8r	.	8r	.	8r	.	8ryy	.	8ryy	.	8ryy	.	16ddd\Jk)	.	8ryy	.	8ryy	8ryy	.	8ryy	.	16dd/Jk)yy	.	16ddd\Jk)yy	.
.	.	.	.	.	.	.	.	.	.	.	.	16r	.	.	.	.	.	.	.	.	16ryy	.	16ryy	.
!LO:LB:g=original	!	!LO:LB:g=original	!	!LO:LB:g=original	!	!	!	!	!	!	!	!	!	!	!	!	!	!	!	!	!	!	!	!
=18	=18	=18	=18	=18	=18	=18	=18	=18	=18	=18	=18	=18	=18	=18	=18	=18	=18	=18	=18	=18	=18	=18	=18	=18
*	*	*	*	*	*	*	*	*	*	*	*	*	*	*	*	*	*	*	*	*	*	*	*^	*
*	*	*	*	*	*	*tremolo	*	*	*	*	*	*	*	*tremolo	*	*	*	*	*tremolo	*	*	*	*	*	*
!	!	!	!	!	!	!	!LO:DY:rj	!	!	!	!LO:DY:rj	!	!LO:DY:rj	!	!LO:DY:rj	!	!	!	!	!	!	!	!	!	!
4.Ra/	.	8Ree\L	.	8D/L	.	8GG/Lyy	fz	8e\Lyy 8G\yy	.	8g/Lyy 8B/yy	fz	4.bb\	fz	8G\Lyy	sf	8g/Lyy	8g\Lyy	sf sf	8ee/Lyy 8b/yy	sf	4.b/yy	.	4.bb\yy	4.ryy	sf
.	.	8Ree\	.	8D/	.	8GG/yy	.	8e\yy 8G\yy	.	8g/yy 8B/yy	.	.	.	8G\yy	.	8g/yy	8g\yy	.	8ee/yy 8b/yy	.	.	.	.	.	.
.	.	8Ree\J	.	8D/J	.	8GG/Jyy	.	8e\Jyy 8G\yy	.	8g/Jyy 8B/yy	.	.	.	8G\Jyy	.	8g/Jyy	8g\Jyy	.	8ee/Jyy 8b/yy	.	.	.	.	.	.
!	!	!	!	!	!	!	!	!	!	!	!	!	!LO:DY:rj	!	!	!	!	!	!	!	!	!	!LO:TX:a:t=Picolo	!	!LO:DY:rj
8r	.	8r	.	8r	.	8ryy	.	8ryy	.	8ryy	.	(16ee\LL	p	8ryy	.	8ryy	8ryy	.	8ryy	.	8ryy	.	16ee/LLyy	8ryy	.
.	.	.	.	.	.	.	.	.	.	.	.	16bb\JJ)	.	.	.	.	.	.	.	.	.	.	16bb/JJyy	.	.
*	*	*	*	*	*	*	*	*	*	*	*	*	*	*	*	*v	*v	*	*	*	*	*	*	*	*
=19	=19	=19	=19	=19	=19	=19	=19	=19	=19	=19	=19	=19	=19	=19	=19	=19	=19	=19	=19	=19	=19	=19	=19	=19
!LO:TX:a:t=2.	!	!	!	!LO:TX:a:t=2.	!	!	!LO:DY:rj	!	!	!	!	!	!	!	!	!	!	!	!LO:DY:rj	!	!	!	!	!
2r	.	2r	.	2r	.	8AA/yy	p	8ryy	.	8ryy	.	8bb-X'\L	.	2ryy	.	2ryy	.	2eeyy/ 2a/yy	p	2ryy	.	8bb-X'/Lyy	2ryy	.
!	!	!	!	!	!	!	!	!	!	!	!LO:DY:rj	!	!	!	!	!	!	!	!	!	!	!	!	!
.	.	.	.	.	.	8ryy	.	8c#\yy	.	8g/yy 8A/yy	p	16aa'\L	.	.	.	.	.	.	.	.	.	16aa'/Lyy	.	.
.	.	.	.	.	.	.	.	.	.	.	.	16gg#X'\JJ	.	.	.	.	.	.	.	.	.	16gg#X'/JJyy	.	.
.	.	.	.	.	.	8AA/yy	.	8ryy	.	8ryy	.	8ggn'\	.	.	.	.	.	.	.	.	.	8ggn'/yy	.	.
.	.	.	.	.	.	8ryy	.	8c#\yy	.	8g/yy 8A/yy	.	(16a\LL	.	.	.	.	.	.	.	.	.	(16a/LLyy	.	.
.	.	.	.	.	.	.	.	.	.	.	.	16gg\JJ)	.	.	.	.	.	.	.	.	.	16gg/JJyy	.	.
=20	=20	=20	=20	=20	=20	=20	=20	=20	=20	=20	=20	=20	=20	=20	=20	=20	=20	=20	=20	=20	=20	=20	=20	=20
2r	.	2r	.	2r	.	8D\yy	.	8ryy	.	8ryy	.	8ff#'\L	.	2ryy	.	2ryy	.	2dd/yy 2d/yy	.	2ryy	.	8ff#'>/L)yy	4.rgyy	.
.	.	.	.	.	.	8ryy	.	8d\yy	.	8f#/yy 8A/yy	.	16ffn'\L	.	.	.	.	.	.	.	.	.	16ffn'>/Lyy	.	.
.	.	.	.	.	.	.	.	.	.	.	.	16ee'\JJ	.	.	.	.	.	.	.	.	.	16ee'>/JJyy	.	.
*	*	*	*	*	*	*	*	*rep	*	*rep	*	*	*	*	*	*	*	*	*	*	*	*	*	*
.	.	.	.	.	.	8D\yy	.	8ryy	.	8ryy	.	8dd'\	.	.	.	.	.	.	.	.	.	8dd'>/Lyy	.	.
.	.	.	.	.	.	8ryy	.	8dyy\	.	8f#/yy 8A/yy	.	8a/	.	.	.	.	.	.	.	.	.	8a'>y/Jyy	8a\yy	.
*	*	*	*	*	*	*	*	*Xrep	*	*Xrep	*	*	*	*	*	*	*	*	*	*	*	*	*	*
*	*	*	*	*	*	*	*	*	*	*	*	*	*	*	*	*	*	*	*	*	*	*v	*v	*
=21	=21	=21	=21	=21	=21	=21	=21	=21	=21	=21	=21	=21	=21	=21	=21	=21	=21	=21	=21	=21	=21	=21	=21
.	.	.	.	.	.	.	.	.	.	.	.	(16qqee/LL	.	.	.	.	.	.	.	(16qqe/LLyy	.	(16qqee/LLyy	.
.	.	.	.	.	.	.	.	.	.	.	.	16qqdd/	.	.	.	.	.	.	.	16qqd/yy	.	16qqdd/yy	.
!	!	!	!	!	!	!	!	!	!	!	!	!	!	!	!	!	!	!	!	!	!	!LO:TX:a:t=Picolo\net\nfla&colon;	!
.	.	.	.	.	.	.	.	.	.	.	.	16qqcc#/JJ)	.	.	.	.	.	.	.	16qqc#/JJ)yy	.	16qqcc#/JJyy)	.
*	*	*	*	*	*	*	*	*	*	*	*	*	*	*	*	*^	*	*	*	*	*	*	*
!	!	!	!	!	!	!	!LO:DY:rj	!	!LO:DY:rj	!	!	!	!	!	!	!	!	!	!	!LO:DY:rj	!	!	!	!
8Ra/	.	8Ree\	.	8D/	.	8D\yy	f	8d\yy 8A\yy 8D\yy	f	8f#/yy 8A/yy	.	(8dd\L	.	8D\yy	.	8a/yy	8f#\yy	f	8dd/yy 8f#/yy	f	(8d/Lyy	.	(8dd\Lyy	.
8r	.	8r	.	8r	.	8ryy	.	8ryy	.	8ryy	.	16ff#\Jk)	.	8ryy	.	8ryy	8ryy	.	8ryy	.	16f#/Jk)yy	.	16ff#\Jk)yy	.
.	.	.	.	.	.	.	.	.	.	.	.	16r	.	.	.	.	.	.	.	.	16ryy	.	16ryy	.
.	.	.	.	.	.	.	.	.	.	.	.	.	.	.	.	.	.	.	.	.	(16qqb/LLyy	.	(16qqbb/LLyy	.
.	.	.	.	.	.	.	.	.	.	.	.	.	.	.	.	.	.	.	.	.	16qqa/yy	.	16qqaa/yy	.
.	.	.	.	.	.	.	.	.	.	.	.	.	.	.	.	.	.	.	.	.	16qqg#X/JJ)yy	.	16qqgg#X/JJ)yy	.
8Ra/	.	8Ree\	.	8D/	.	8D\yy	.	8d\yy 8A\yy 8D\yy	.	8f#/yy 8A/yy	.	(8aa\L	.	8D\yy	.	8a/yy	8f#\yy	.	8dd/yy8f#/yy	.	(8a\Lyy	.	(8aa\Lyy	.
8r	.	8r	.	8r	.	8ryy	.	8ryy	.	8ryy	.	16ddd\Jk)	.	8ryy	.	8ryy	8ryy	.	8ryy	.	16dd\Jk)yy	.	16ddd\Jk)yy	.
.	.	.	.	.	.	.	.	.	.	.	.	16r	.	.	.	.	.	.	.	.	16ryy	.	16ryy	.
!!LO:PB:g=original
=22	=22	=22	=22	=22	=22	=22	=22	=22	=22	=22	=22	=22	=22	=22	=22	=22	=22	=22	=22	=22	=22	=22	=22	=22
*	*	*	*	*	*	*	*	*	*	*	*	*	*	*	*	*	*	*	*^	*	*	*	*^	*
!	!	!	!	!	!	!	!LO:DY:rj	!	!LO:DY:rj	!	!LO:DY:rj	!	!	!	!	!	!	!	!	!	!	!	!	!	!	!
4.Ra/	.	8Ree\L	.	8D/L	.	8GG/Lyy	fz	8e\Lyy 8G\yy	fz	8g/Lyy 8B/yy	fz	4.bb\	fz	8G\Lyy	.	8g/Lyy	8g\Lyy	.	8ee/Lyy	8b\Lyy	sf	4.b\yy	.	4.bb\yy	4.ryy	sf
.	.	8Ree\	.	8D/	.	8GG/yy	.	8e\yy 8G\yy	.	8g/yy 8B/yy	.	.	.	8G\yy	.	8g/yy	8g\yy	.	8ee/yy	8b\yy	.	.	.	.	.	.
.	.	8Ree\J	.	8D/J	.	8GG/Jyy	.	8e\Jyy 8G\yy	.	8g/Jyy 8B/yy	.	.	.	8G\Jyy	.	8g/Jyy	8g\Jyy	.	8ee/Jyy	8b\Jyy	.	.	.	.	.	.
*	*	*	*	*	*	*	*	*	*	*	*	*	*	*Xtremolo	*	*	*	*	*	*	*	*	*	*	*	*
!	!	!	!	!	!	!	!	!	!	!	!	!	!	!	!	!	!	!	!	!	!	!	!	!LO:TX:a:t=Picolo	!	!
8r	.	8r	.	8r	.	8ryy	.	8ryy	.	8ryy	.	(16ee\LL	.	8ryy	.	8ryy	8ryy	.	8ryy	8ryy	.	8ryy	.	(<16ee/LLyy	8ryy	.
.	.	.	.	.	.	.	.	.	.	.	.	16bb\JJ)	.	.	.	.	.	.	.	.	.	.	.	16bb/JJ)yy	.	.
*	*	*	*	*	*	*	*	*	*	*	*	*	*	*	*	*v	*v	*	*	*	*	*	*	*	*	*
*	*	*	*	*	*	*	*	*	*	*	*	*	*	*	*	*	*	*v	*v	*	*	*	*	*	*
=23	=23	=23	=23	=23	=23	=23	=23	=23	=23	=23	=23	=23	=23	=23	=23	=23	=23	=23	=23	=23	=23	=23	=23	=23
!LO:TX:a:t=4.	!	!LO:TX:a:t=4.	!	!LO:TX:a:t=4.	!	!	!LO:DY:rj	!	!	!	!	!	!	!	!	!	!	!	!LO:DY:rj	!	!	!	!	!
2r	.	2r	.	2r	.	8AA/yy	p	8ryy	.	8ryy	p	8bb-X\L	.	2ryy	.	2ryy	.	2ee/yy 2a/yy	p	2ryy	.	8bb-X/Lyy	2r	.
.	.	.	.	.	.	8ryy	.	8e\yy 8c#\yy	.	8g/yy 8A/yy	.	16aa\L	.	.	.	.	.	.	.	.	.	16aa/Lyy	.	.
.	.	.	.	.	.	.	.	.	.	.	.	16gg#X\JJ	.	.	.	.	.	.	.	.	.	16gg#X/JJyy	.	.
.	.	.	.	.	.	8AA/yy	.	8ryy	.	8ryy	.	8ggn\L	.	.	.	.	.	.	.	.	.	8ggn/Lyy	.	.
.	.	.	.	.	.	8ryy	.	8e\yy 8c#\yy	.	8g/yy 8A/yy	.	16ee\L	.	.	.	.	.	.	.	.	.	16ee/Lyy	.	.
.	.	.	.	.	.	.	.	.	.	.	.	16ff#\JJ	.	.	.	.	.	.	.	.	.	16ff#/JJyy	.	.
=24	=24	=24	=24	=24	=24	=24	=24	=24	=24	=24	=24	=24	=24	=24	=24	=24	=24	=24	=24	=24	=24	=24	=24	=24
2r	.	2r	.	2r	.	8D/Lyy	.	4d\	.	4f#/L 4A/	.	4dd\	.	2r	.	4r	.	8dd/L 8d/	.	2r	.	4dd/	4r	.
.	.	.	.	.	.	8D/yy	.	.	.	.	.	.	.	.	.	.	.	8dd/ 8d/	.	.	.	.	.	.
.	.	.	.	.	.	8D/Jyy	.	4r	.	4r	.	4r	.	.	.	8r	.	8dd/J 8d/	.	.	.	8r	4ryy	.
*	*	*	*	*	*	*	*	*	*	*	*	*	*	*	*	*	*	*Xtremolo	*	*	*	*	*	*
!	!	!	!	!	!	!	!	!	!	!	!	!	!	!	!	!	!	!	!	!	!	!LO:TX:a:t=Flauto	!	!
.	.	.	.	.	.	8ryy	.	.	.	.	.	.	.	.	.	(16d/LL	.	8r	.	.	.	(16dd^\LL	.	.
.	.	.	.	.	.	.	.	.	.	.	.	.	.	.	.	16g/JJ)	.	.	.	.	.	16gg\JJ)	.	.
*	*	*	*	*	*	*	*	*	*	*	*	*	*	*	*	*	*	*	*	*	*	*v	*v	*
=25	=25	=25	=25	=25	=25	=25	=25	=25	=25	=25	=25	=25	=25	=25	=25	=25	=25	=25	=25	=25	=25	=25	=25
*	*	*	*	*	*	*Xtremolo	*	*	*	*	*	*	*	*	*	*tremolo	*	*	*	*tremolo	*	*tremolo	*
!	!	!	!	!	!	!	!LO:DY:a:rj	!	!	!	!LO:DY:rj	!	!	!	!	!LO:TX:t=P:problem:4 kropki art.	!	!	!	!	!	!LO:TX:t=P:problem:4 kropki art.	!
2r	.	2r	.	2r	.	4GG/	p	4G/	.	4B/	p	2r	.	2r	.	16b/LL 16g'>/	.	2r	.	16gg\LL	.	16bb'\LL	mf
.	.	.	.	.	.	.	.	.	.	.	.	.	.	.	.	16b/ 16g'>/	.	.	.	16gg\	.	16bb'\	.
.	.	.	.	.	.	.	.	.	.	.	.	.	.	.	.	16b/ 16g'>/	.	.	.	16gg\	.	16bb'\	.
.	.	.	.	.	.	.	.	.	.	.	.	.	.	.	.	16b/JJ 16g'>/	.	.	.	16gg\JJ	.	16bb'\JJ	.
.	.	.	.	.	.	8GG/L	.	8G/L	.	8B/L	.	.	.	.	.	8b/L 8g'/	.	.	.	8gg\L	.	8bb'\L	.
.	.	.	.	.	.	8GG/J	.	8A/J	.	8cn/J	.	.	.	.	.	8ccn/J 8a'/	.	.	.	8aa\J	.	8cccn'\J	.
=26	=26	=26	=26	=26	=26	=26	=26	=26	=26	=26	=26	=26	=26	=26	=26	=26	=26	=26	=26	=26	=26	=26	=26
*	*	*	*	*	*	*	*	*	*	*	*	*	*	*	*	*^	*	*	*	*	*	*	*
!	!	!	!	!	!	!	!LO:DY:rj	!	!	!	!	!	!	!	!LO:DY:rj	!	!	!LO:DY:rj	!	!	!	!	!	!LO:DY:rj
2r	.	2r	.	2r	.	4GG^/	f	4B/	.	4d^/	.	4dd\ 4g^<\	.	4G^<\	f	4dd/	4b\	f	4gg\ 4dd^<\	.	4bb\ 4dd\	.	4ddd\	f
!	!	!	!	!	!	!	!	!	!	!	!	!	!	!	!	!	!	!	!	!	!	!	!	!LO:DY:rj
.	.	.	.	.	.	4GG^/	.	4cn/	.	4e^/	.	4ee\ 4g^<\	.	4G^<\	.	4ee/	4ccn\	.	4gg\ 4ee^<\	.	4cccn\ 4ee\	.	4eee\	f
=27	=27	=27	=27	=27	=27	=27	=27	=27	=27	=27	=27	=27	=27	=27	=27	=27	=27	=27	=27	=27	=27	=27	=27	=27
*	*	*	*	*	*	*	*	*	*	*	*	*	*	*	*	*	*	*	*	*	*	*	*^	*
4Ra^>/	.	2r	.	2r	.	4GG/	.	4B/	.	4d/	.	4dd\ 4g\	.	4G^<\	.	4dd/	4b\	.	4gg\ 4dd^<\	.	4bb\ 4dd^<\	.	4ddd\	4rbbb	.
*	*	*	*	*	*	*	*	*Xtremolo	*	*Xtremolo	*	*	*	*	*	*	*	*	*	*	*	*	*	*	*
!	!	!	!	!	!	!	!LO:DY:rj	!	!	!	!LO:DY:rj	!	!	!	!	!	!	!	!	!LO:DY:rj	!	!	!LO:TX:a:t=Picolo\net flauto	!	!
4Ra^>/	.	.	.	.	.	8D\L	p	8A/L	.	8f#/L	p	16ccn\LL	.	4r	.	4r	4r	.	8ff#\L 8dd\	p	4r	.	16cccn\LL	4ryy	.
.	.	.	.	.	.	.	.	.	.	.	.	16a\	.	.	.	.	.	.	.	.	.	.	16aa\	.	.
.	.	.	.	.	.	8D\J	.	8A/J	.	8f#/J	.	16b\	.	.	.	.	.	.	8ff#\J 8dd\	.	.	.	16bb\	.	.
.	.	.	.	.	.	.	.	.	.	.	.	16cc\JJ	.	.	.	.	.	.	.	.	.	.	16ccc\JJ	.	.
*	*	*	*	*	*	*	*	*	*	*	*	*	*	*	*	*v	*v	*	*	*	*	*	*v	*v	*
!!LO:LB:g=original
=28	=28	=28	=28	=28	=28	=28	=28	=28	=28	=28	=28	=28	=28	=28	=28	=28	=28	=28	=28	=28	=28	=28	=28
!	!	!	!	!	!	!LO:TX:a:t=P:problem:mixedbeam	!	!	!	!	!	!	!	!	!	!	!	!	!	!	!	!	!
4Ra^>/	.	2r	.	4D/	.	8G\L	.	8d\L 8G\	.	8g/L	.	16b/LL	.	2r	.	4r	.	8gg\L 8dd\	.	4r	.	16bb'\LL	.
.	.	.	.	.	.	.	.	.	.	.	.	16g/	.	.	.	.	.	.	.	.	.	16gg'\	.
.	.	.	.	.	.	8GG/J	.	8d\ 8G\	.	8g/	.	16a/	.	.	.	.	.	8ff#\ 8dd\	.	.	.	16aa'\	.
.	.	.	.	.	.	.	.	.	.	.	.	16b/JJ	.	.	.	.	.	.	.	.	.	16bb'\JJ	.
4r	.	.	.	4r	.	8D\	.	8d\J 8A\	.	8f#/J	.	8a/	.	.	.	8r	.	8ff#\J 8dd\	.	8r	.	8aa'\	.
!	!	!	!	!	!	!	!	!	!	!	!	!	!	!	!	!	!	!	!	!LO:N:vis=1	!	!LO:TX:a:t=flauto	!
.	.	.	.	.	.	8r	.	8r	.	8r	.	8r	.	.	.	16d/LL	.	8r	.	8rcc	.	16dd\LL	.
.	.	.	.	.	.	.	.	.	.	.	.	.	.	.	.	16g/JJ	.	.	.	.	.	16gg\JJ	.
=29	=29	=29	=29	=29	=29	=29	=29	=29	=29	=29	=29	=29	=29	=29	=29	=29	=29	=29	=29	=29	=29	=29	=29
!LO:TX:a:t=2.	!	!LO:TX:a:t=2.	!	!LO:TX:a:t=2.	!	!	!LO:DY:rj	!	!LO:DY:rj	!	!LO:DY:rj	!	!	!	!	!LO:TX:t=P:problem:4 kropki art.	!	!	!	!	!	!LO:TX:t=P:problem:4 kropki art.	!
2r	.	2r	.	2r	.	4GG/	p	4G/	p	4B/	p	2r	.	2r	.	16b/LL 16g'/	.	2r	.	16gg\LL	.	16bb'\LL	.
.	.	.	.	.	.	.	.	.	.	.	.	.	.	.	.	16b/ 16g'/	.	.	.	16gg\	.	16bb'\	.
.	.	.	.	.	.	.	.	.	.	.	.	.	.	.	.	16b/ 16g'/	.	.	.	16gg\	.	16bb'\	.
.	.	.	.	.	.	.	.	.	.	.	.	.	.	.	.	16b/JJ 16g'/	.	.	.	16gg\JJ	.	16bb'\JJ	.
*	*	*	*	*	*	*	*	*	*	*	*	*	*	*	*	*Xtremolo	*	*	*	*	*	*	*
.	.	.	.	.	.	8GG/L	.	8G/L	.	8B/L	.	.	.	.	.	8b/L 8g'/	.	.	.	8gg\L	.	8bb'\L	.
.	.	.	.	.	.	8GG/J	.	8A/J	.	8cn/J	.	.	.	.	.	8ccn/J 8a'/	.	.	.	8aa\J	.	8cccn'\J	.
=30	=30	=30	=30	=30	=30	=30	=30	=30	=30	=30	=30	=30	=30	=30	=30	=30	=30	=30	=30	=30	=30	=30	=30
!	!	!	!	!	!	!	!	!	!	!	!	!	!LO:DY:rj	!	!LO:DY:rj	!	!LO:DY:rj	!	!	!	!	!	!LO:DY:rj
2r	.	2r	.	2r	.	4GG^/	f	4B^/	.	4d^/	.	4dd\ 4g^<\	f	4G^<\	f	4dd\ 4b^<\	f	4gg\ 4dd^<\	.	4bb\ 4dd^<\	.	4ddd\	f
!	!	!	!	!	!	!	!	!	!	!	!	!	!	!	!	!	!	!	!	!	!	!	!LO:DY:rj
.	.	.	.	.	.	4BB^/	.	4d/ 4B^/	.	4g^/	.	4ff#\ 4g^<\	.	4B^<\	.	4gg\ 4dd^<\	.	4gg\ 4dd^<\	.	4gg\ 4dd^<\	.	4eee\	f
=31	=31	=31	=31	=31	=31	=31	=31	=31	=31	=31	=31	=31	=31	=31	=31	=31	=31	=31	=31	=31	=31	=31	=31
!	!	!	!	!	!	!	!	!	!	!	!	!	!	!	!	!	!	!	!	!	!	!	!LO:DY:rj
4Ra^>/	.	2r	.	2r	.	4Cn^/	.	4cn\	.	4g/	.	4ee\ 4g^<\	.	4cn^<\	.	4ee\ 4ccn^<\	.	4gg\ 4ee^<\	.	4gg\ 4ee^<\	.	4eee\	f
!	!	!	!	!	!	!	!LO:DY:rj	!	!	!	!LO:DY:rj	!	!	!	!	!	!	!	!LO:DY:rj	!	!	!LO:TX:a:t=Picolo\net flaut	!
4Ra^>/	.	.	.	.	.	8AA/L	p	8A/L	.	8e/L	p	16ccn\LL	.	4r	.	4r	.	8ee/L 8a/	p	4r	.	(16ccc#'\LL	.
.	.	.	.	.	.	.	.	.	.	.	.	16a\	.	.	.	.	.	.	.	.	.	16aa'\	.
.	.	.	.	.	.	8AA/J	.	8A/J	.	8e/J	.	16b\	.	.	.	.	.	8ee/J 8a/	.	.	.	16bb'\	.
.	.	.	.	.	.	.	.	.	.	.	.	16cc\JJ	.	.	.	.	.	.	.	.	.	16ccc#'\JJ)	.
=32	=32	=32	=32	=32	=32	=32	=32	=32	=32	=32	=32	=32	=32	=32	=32	=32	=32	=32	=32	=32	=32	=32	=32
*	*	*	*	*	*	*	*	*	*	*	*	*	*	*	*	*	*	*^	*	*	*	*	*
!	!	!	!	!LO:TX:a:t=1.	!	!	!	!	!	!	!	!	!	!	!	!	!	!	!	!	!	!	!	!
4Ra^>/	.	2r	.	2r	.	8D/L	.	8F#/L	.	8c#/L	.	16a/LL	.	2r	.	2r	.	8dd/L	8dd\L	.	4r	.	(16aa'\LL	.
.	.	.	.	.	.	.	.	.	.	.	.	16f#/	.	.	.	.	.	.	.	.	.	.	16ff#'\	.
.	.	.	.	.	.	8D/	.	8F#/	.	8c#/	.	16g/	.	.	.	.	.	8dd/	8dd\	.	.	.	16gg'\	.
.	.	.	.	.	.	.	.	.	.	.	.	16a/JJ	.	.	.	.	.	.	.	.	.	.	16aa'\JJ)	.
4r	.	.	.	.	.	8GG/J	.	8G/J	.	8B/J	.	8g/	.	.	.	.	.	8dd/J	8g\J	.	8r	.	8gg\	.
!	!	!	!	!	!	!	!	!	!	!	!	!	!	!	!	!	!	!	!	!	!	!	!LO:TX:t=P:problem:ołówkiem dopisane zamknięcie repetycji we wszystkich systemach	!
!	!	!	!	!	!	!	!	!	!	!	!	!	!	!	!	!	!	!	!	!	!	!	!LO:TX:a:t=Picolo\net fl&colon;	!
.	.	.	.	.	.	8r	.	8r	.	8r	.	8a/	.	.	.	.	.	8r	8r	.	8a/	.	8a/	.
*	*	*	*	*	*	*	*	*	*	*	*	*	*	*	*	*	*	*v	*v	*	*	*	*	*
!LO:LB:g=original	!	!LO:LB:g=original	!	!LO:LB:g=original	!	!	!	!	!	!	!	!	!	!	!	!	!	!	!	!	!	!	!
=33	=33	=33	=33	=33	=33	=33	=33	=33	=33	=33	=33	=33	=33	=33	=33	=33	=33	=33	=33	=33	=33	=33	=33
!	!	!	!	!	!	!	!	!	!	!	!	!	!	!	!	!	!	!	!	!LO:TX:t=P:problem:skopiowano odcinek a.- b.	!	!LO:TX:a:t=Col Vo. Io.	!
.	.	.	.	.	.	.	.	.	.	.	.	(16qqee/LL	.	.	.	.	.	.	.	(16qqf#/LLyy	.	(16qqee/LLyy	.
.	.	.	.	.	.	.	.	.	.	.	.	16qqdd/	.	.	.	.	.	.	.	16qqe/yy	.	16qqdd/yy	.
.	.	.	.	.	.	.	.	.	.	.	.	16qqcc#/JJ)	.	.	.	.	.	.	.	16qqd/JJyy	.	16qqcc#/JJ)yy	.
*	*	*	*	*	*	*	*	*	*	*	*	*	*	*	*	*^	*	*	*	*	*	*	*
!	!	!	!	!	!	!LO:TX:t=P:problem:skopiowano odcinek a.- b.	!	!LO:TX:t=P:problem:skopiowano odcinek a.- b.	!	!LO:TX:t=P:problem:skopiowano odcinek a.- b.	!	!	!	!LO:TX:t=P:problem:skopiowano odcinek a.- b.	!LO:DY:a:rj	!LO:TX:t=P:problem:skopiowano odcinek a.- b.	!	!	!LO:TX:t=P:problem:skopiowano odcinek a.- b.	!LO:DY:rj	!	!	!	!
8Ra/	.	8Ree\	.	8D/	.	8D\yy	.	8d\yy 8A\yy 8D\yy	.	8f#/yy 8A/yy	.	(8dd\L	.	8D\yy	f	8a/yy	8f#\yy	.	8dd/yy 8f#/yy	f	8d/L)yy	.	(8dd\Lyy	.
8r	.	8r	.	8r	.	8ryy	.	8ryy	.	8ryy	.	16ff#\Jk)	.	8ryy	.	8ryy	8ryy	.	8ryy	.	16f#/Jkyy	.	16ff#\Jk)yy	.
.	.	.	.	.	.	.	.	.	.	.	.	16r	.	.	.	.	.	.	.	.	16ryy	.	16ryy	.
8Ra/	.	8Ree\	.	8D/	.	8D\yy	.	8d\yy 8A\yy 8D\yy	.	8f#/yy 8A/yy	.	(8aa\L	.	8D\yy	.	8a/yy	8f#\yy	.	8dd/yy 8f#/yy	.	(8a/Lyy	.	(8aa\Lyy	.
8r	.	8r	.	8r	.	8ryy	.	8ryy	.	8ryy	.	16ddd\Jk)	.	8ryy	.	8ryy	8ryy	.	8ryy	.	16dd/Jk)yy	.	16ddd\Jk)yy	.
.	.	.	.	.	.	.	.	.	.	.	.	16r	.	.	.	.	.	.	.	.	16ryy	.	16ryy	.
=34	=34	=34	=34	=34	=34	=34	=34	=34	=34	=34	=34	=34	=34	=34	=34	=34	=34	=34	=34	=34	=34	=34	=34	=34
*	*	*	*	*	*	*tremolo	*	*tremolo	*	*	*	*	*	*tremolo	*	*	*	*	*tremolo	*	*	*	*	*
!	!	!	!	!	!	!	!LO:DY:rj	!	!	!	!LO:DY:rj	!	!	!	!LO:DY:rj	!	!	!LO:DY:rj	!	!	!	!	!	!
8Ra/L	.	8Ree\L	.	8D/L	.	8GG/Lyy	fz	8e\Lyy 8G\yy	.	8g/Lyy 8B/yy	fz	4.bb\	f	8G\Lyy	sf	8g/Lyy	8g\Lyy	sf	8ee/Lyy 8b/yy	sf	4.b/yy	.	4.bb\yy	sf
8Ra/	.	8Ree\	.	8D/	.	8GG/yy	.	8e\yy 8G\yy	.	8g/yy 8B/yy	.	.	.	8G\yy	.	8g/yy	8g\yy	.	8ee/yy 8b/yy	.	.	.	.	.
8Ra/J	.	8Ree\J	.	8D/J	.	8GG/Jyy	.	8e\Jyy 8G\yy	.	8g/Jyy 8B/yy	.	.	.	8G\Jyy	.	8g/Jyy	8g\Jyy	.	8ee/Jyy 8b/yy	.	.	.	.	.
!	!	!	!	!	!	!	!	!	!	!	!	!	!LO:DY:rj	!	!	!	!	!	!	!	!	!	!	!LO:DY:rj
8r	.	8r	.	8r	.	8ryy	.	8ryy	.	8ryy	.	(16ee\LL	p	8ryy	.	8ryy	8ryy	.	8ryy	.	8ryy	.	(16ee\LLyy	p
.	.	.	.	.	.	.	.	.	.	.	.	16bb\JJ)	.	.	.	.	.	.	.	.	.	.	16bb\JJ)yy	.
*	*	*	*	*	*	*	*	*	*	*	*	*	*	*	*	*v	*v	*	*	*	*	*	*	*
=35	=35	=35	=35	=35	=35	=35	=35	=35	=35	=35	=35	=35	=35	=35	=35	=35	=35	=35	=35	=35	=35	=35	=35
!LO:TX:a:t=2.	!	!LO:TX:a:t=2.	!	!LO:TX:a:t=2.	!	!	!LO:DY:rj	!	!	!	!	!	!	!	!	!	!	!	!LO:DY:rj	!	!	!	!
2r	.	2r	.	2r	.	8AA/yy	p	8ryy	.	8ryy	.	8bb-X'\L	.	2ryy	.	2ryy	.	2ee/yy 2a/yy	p	2ryy	.	8bb-X'\Lyy	.
!	!	!	!	!	!	!	!	!	!	!	!LO:DY:rj	!	!	!	!	!	!	!	!	!	!	!	!
.	.	.	.	.	.	8ryy	.	8c#\yy	.	8g/yy 8A/yy	p	16aa'\L	.	.	.	.	.	.	.	.	.	16aa'\Lyy	.
.	.	.	.	.	.	.	.	.	.	.	.	16gg#X'\JJ	.	.	.	.	.	.	.	.	.	16gg#X'\JJyy	.
.	.	.	.	.	.	8AA/yy	.	8ryy	.	8ryy	.	8ggn'\	.	.	.	.	.	.	.	.	.	8ggn'\yy	.
.	.	.	.	.	.	8ryy	.	8c#\yy	.	8g/yy 8A/yy	.	(16a\LL	.	.	.	.	.	.	.	.	.	(16a\LLyy	.
.	.	.	.	.	.	.	.	.	.	.	.	16gg\JJ)	.	.	.	.	.	.	.	.	.	16gg\JJ)yy	.
=36	=36	=36	=36	=36	=36	=36	=36	=36	=36	=36	=36	=36	=36	=36	=36	=36	=36	=36	=36	=36	=36	=36	=36
2r	.	2r	.	2r	.	8D\yy	.	8ryy	.	8ryy	.	8ff#'\L	.	2ryy	.	2ryy	.	2dd/yy 2d/yy	.	2ryy	.	8ff#'\Lyy	.
.	.	.	.	.	.	8ryy	.	8d\yy	.	8f#/yy 8A/yy	.	16ffn'\L	.	.	.	.	.	.	.	.	.	16ffn'\Lyy	.
.	.	.	.	.	.	.	.	.	.	.	.	16ee'\JJ	.	.	.	.	.	.	.	.	.	16ee'\JJyy	.
*	*	*	*	*	*	*	*	*rep	*	*rep	*	*	*	*	*	*	*	*	*	*	*	*	*
.	.	.	.	.	.	8D\yy	.	8ryy	.	8ryy	.	8dd'\L	.	.	.	.	.	.	.	.	.	8dd'\Lyy	.
.	.	.	.	.	.	8ryy	.	8d\yy	.	8f#/yy 8A/yy	.	8a'\J	.	.	.	.	.	.	.	.	.	8a'\Jyy	.
*	*	*	*	*	*	*	*	*Xrep	*	*Xrep	*	*	*	*	*	*	*	*	*	*	*	*	*
=37	=37	=37	=37	=37	=37	=37	=37	=37	=37	=37	=37	=37	=37	=37	=37	=37	=37	=37	=37	=37	=37	=37	=37
!	!	!	!	!	!	!	!	!	!	!	!	!	!LO:DY:rj	!	!	!	!	!	!	!	!	!	!LO:DY:rj
.	.	.	.	.	.	.	.	.	.	.	.	(16qqee/LL	f	.	.	.	.	.	.	(16qqe/LLyy	.	(16qqee/LLyy	f
.	.	.	.	.	.	.	.	.	.	.	.	16qqdd/	.	.	.	.	.	.	.	16qqd/yy	.	16qqdd/yy	.
.	.	.	.	.	.	.	.	.	.	.	.	16qqcc#/JJ)	.	.	.	.	.	.	.	16qqc#/JJ)yy	.	16qqcc#/JJyy	.
*	*	*	*	*	*	*	*	*	*	*	*	*	*	*	*	*^	*	*	*	*	*	*	*
!	!	!	!	!	!	!	!LO:DY:rj	!	!LO:DY:rj	!	!	!	!	!	!	!	!	!LO:DY:rj	!	!LO:DY:rj	!	!	!	!
8Ra/	.	8Ree\	.	8D/	.	8D\yy	f	8d\yy 8A\yy 8D\yy	f	8f#/yy 8A/yy	.	(8dd\L	.	8D\yy	.	8a/yy	8f#\yy	f	8dd/yy 8f#/yy	f	(8d/Lyy	.	(8dd\L)yy	.
8r	.	8r	.	8r	.	8ryy	.	8ryy	.	8ryy	.	16ff#\Jk)	.	8ryy	.	8ryy	8ryy	.	8ryy	.	16f#/Jk)yy	.	16ff#\Jk)yy	.
.	.	.	.	.	.	.	.	.	.	.	.	16r	.	.	.	.	.	.	.	.	16ryy	.	16ryy	.
.	.	.	.	.	.	.	.	.	.	.	.	.	.	.	.	.	.	.	.	.	(16qqb/LLyy	.	.	.
.	.	.	.	.	.	.	.	.	.	.	.	.	.	.	.	.	.	.	.	.	16qqa/yy	.	.	.
.	.	.	.	.	.	.	.	.	.	.	.	.	.	.	.	.	.	.	.	.	16qqg#X/JJ)yy	.	.	.
8Ra/	.	8Ree\	.	8D/	.	8D\yy	.	8d\yy 8A\yy 8D\yy	.	8f#yy/ 8A/yy	.	(8aa\L	.	8D\yy	.	8a/yy	8f#\yy	.	8dd/yy8f#/yy	.	(8a\Lyy	.	(8aa\Lyy	.
8r	.	8r	.	8r	.	8ryy	.	8ryy	.	8ryy	.	16ddd\Jk)	.	8ryy	.	8ryy	8ryy	.	8ryy	.	16dd\Jk)yy	.	16ddd\Jk)yy	.
.	.	.	.	.	.	.	.	.	.	.	.	16r	.	.	.	.	.	.	.	.	16ryy	.	16ryy	.
=38	=38	=38	=38	=38	=38	=38	=38	=38	=38	=38	=38	=38	=38	=38	=38	=38	=38	=38	=38	=38	=38	=38	=38	=38
*	*	*	*	*	*	*	*	*	*	*	*	*	*	*	*	*	*	*	*^	*	*	*	*	*
!	!	!	!	!	!	!	!LO:DY:rj	!	!LO:DY:rj	!	!LO:DY:rj	!	!	!	!	!	!	!	!	!	!	!	!	!	!
8Ra/L	.	8Ree\L	.	8D^/L	.	8GG/Lyy	fz	8e\Lyy 8G\yy	fz	8g/Lyy 8B/yy	fz	4.bb\	.	8G\Lyy	.	8g/Lyy	8g\Lyy	.	8ee/Lyy	8b\Lyy	sf	4.b\yy	.	4.bb\yy	sf
8Ra/	.	8Ree\	.	8D/	.	8GG/yy	.	8e\yy 8G\yy	.	8g/yy 8B/yy	.	.	.	8G\yy	.	8g/yy	8g\yy	.	8ee/yy	8b\yy	.	.	.	.	.
8Ra/J	.	8Ree\J	.	8D/J	.	8GG/Jyy	.	8e\Jyy 8G\yy	.	8g/Jyy 8B/yy	.	.	.	8G\Jyy	.	8g/Jyy	8g\Jyy	.	8ee/Jyy	8b\Jyy	.	.	.	.	.
!	!	!	!	!	!	!	!	!	!	!	!	!	!LO:DY:rj	!	!	!	!	!	!	!	!	!	!	!	!LO:DY:rj
8r	.	8r	.	8r	.	8ryy	.	8ryy	.	8ryy	.	(16ee\LL	p	8ryy	.	8ryy	8ryy	.	8ryy	8ryy	.	8ryy	.	(16ee\LLyy	p
.	.	.	.	.	.	.	.	.	.	.	.	16bb\JJ)	.	.	.	.	.	.	.	.	.	.	.	16bb\JJ)yy	.
*	*	*	*	*	*	*	*	*	*	*	*	*	*	*	*	*v	*v	*	*	*	*	*	*	*	*
*	*	*	*	*	*	*	*	*	*	*	*	*	*	*	*	*	*	*v	*v	*	*	*	*	*
=39	=39	=39	=39	=39	=39	=39	=39	=39	=39	=39	=39	=39	=39	=39	=39	=39	=39	=39	=39	=39	=39	=39	=39
!LO:TX:a:t=2.	!	!LO:TX:a:t=2.	!	!LO:TX:a:t=2.	!	!	!LO:DY:rj	!	!	!	!	!	!	!	!	!	!	!	!LO:DY:rj	!	!	!	!
2r	.	2r	.	2r	.	8AA/yy	p	8ryy	.	8ryy	p	8bb-X\L	.	2ryy	.	2ryy	.	2ee/yy 2a/yy	p	2ryy	.	8bb-X\Lyy	.
.	.	.	.	.	.	8ryy	.	8e\yy 8c#\yy	.	8g/yy 8A/yy	.	16aa\L	.	.	.	.	.	.	.	.	.	16aa\Lyy	.
.	.	.	.	.	.	.	.	.	.	.	.	16gg#X\JJ	.	.	.	.	.	.	.	.	.	16gg#X\JJyy	.
.	.	.	.	.	.	8AA/yy	.	8ryy	.	8ryy	.	8ggn\L	.	.	.	.	.	.	.	.	.	8ggn\Lyy	.
.	.	.	.	.	.	8ryy	.	8e\yy 8c#\yy	.	8g/yy 8A/yy	.	16ee\L	.	.	.	.	.	.	.	.	.	16ee\Lyy	.
.	.	.	.	.	.	.	.	.	.	.	.	16ff#\JJ	.	.	.	.	.	.	.	.	.	16ff#\JJyy	.
=40	=40	=40	=40	=40	=40	=40	=40	=40	=40	=40	=40	=40	=40	=40	=40	=40	=40	=40	=40	=40	=40	=40	=40
2r	.	2r	.	2r	.	8D/Lyy	.	8d\Lyy	.	8f#/Lyy 8A/yy	.	4dd\	.	4ryy	.	4ryy	.	8dd/Lyy 8d/yy	.	4ryy	.	4dd\yy	.
.	.	.	.	.	.	8D/yy	.	8d\yy	.	8f#/yy 8A/yy	.	.	.	.	.	.	.	8dd/yy 8d/yy	.	.	.	.	.
!	!	!	!	!	!	!	!	!	!	!	!	!LO:TX:b:t=fine	!	!	!	!	!	!	!	!	!	!LO:TX:b:i:t=fine	!
.	.	.	.	.	.	8D/Jyy	.	8d\Jyy	.	8f#/Jyy 8A/yy	.	8r;	.	8ryy	.	8ryy	.	8dd/Jyy 8d/yy	.	8ryy	.	8r;	.
.	.	.	.	.	.	8ryy	.	8ryy	.	8ryy	.	8ryy	.	8ryy	.	8ryy	.	8ryy	.	8ryy	.	8ryy	.
==	==	==	==	==	==	==	==	==	==	==	==	==	==	==	==	==	==	==	==	==	==	==	==
*-	*-	*-	*-	*-	*-	*-	*-	*-	*-	*-	*-	*-	*-	*-	*-	*-	*-	*-	*-	*-	*-	*-	*-
!!!system-decoration: [(s1,s2)][(s3,s4,s5)][(s6,s7,s8,s9)][(s10,s11,s12)]
!!!RDF**kern: > = above
!!!RDF**kern: < = below
!!!EED: Andrzej Borzym
!!!EST: 2021-05-15
!!!AIN: 1 bdrum 1 clars 1 cor 1 empty 1 picco 1 timpa 1 trngl 1 tromp 1 tromt 1 viola 2 violn
!!!ENC: Berenika Jozajtis
!!!END: 2021-04-19
